assets/img/braze_icons/hash-02.svg

<svg fill="none" height="24" viewBox="0 0 24 24" width="24" xmlns="http://www.w3.org/2000/svg"><path clip-rule="evenodd" d="m10.4864 3.16443c.0908-.54477-.2773-1.05999-.82203-1.15079-.54477-.09079-1.06.27722-1.15079.822l-.69406 4.16436h-4.31952c-.55228 0-1 .44772-1 1s.44772 1 1 1h3.98619l-1 6h-3.98619c-.55228 0-1 .4477-1 1s.44772 1 1 1h3.65285l-.63927 3.8356c-.0908.5448.27722 1.06.82199 1.1508s1.06-.2772 1.1508-.822l.69407-4.1644h5.97246l-.6393 3.8356c-.0908.5448.2772 1.06.822 1.1508.5447.0908 1.06-.2772 1.1508-.822l.694-4.1644h3.3196c.5523 0 1-.4477 1-1s-.4477-1-1-1h-2.9862l1-6h2.9862c.5523 0 1-.44772 1-1s-.4477-1-1-1h-2.6529l.6393-3.83557c.0908-.54477-.2773-1.05999-.822-1.15079-.5448-.09079-1.06.27722-1.1508.822l-.6941 4.16436h-5.97239zm3.9998 11.83557 1-6h-5.97243l-1 6z" fill="#801ed7" fill-rule="evenodd"/></svg>

<svg width="24" height="24" viewBox="0 0 24 24" fill="none" xmlns="http://www.w3.org/2000/svg">
<path fill-rule="evenodd" clip-rule="evenodd" d="M10.4864 3.16443C10.5772 2.61966 10.2091 2.10444 9.66437 2.01364C9.1196 1.92285 8.60437 2.29086 8.51358 2.83564L7.81952 7H3.5C2.94772 7 2.5 7.44772 2.5 8C2.5 8.55228 2.94772 9 3.5 9H7.48619L6.48619 15H2.5C1.94772 15 1.5 15.4477 1.5 16C1.5 16.5523 1.94772 17 2.5 17H6.15285L5.51358 20.8356C5.42278 21.3804 5.7908 21.8956 6.33557 21.9864C6.88034 22.0772 7.39557 21.7092 7.48637 21.1644L8.18044 17H14.1529L13.5136 20.8356C13.4228 21.3804 13.7908 21.8956 14.3356 21.9864C14.8803 22.0772 15.3956 21.7092 15.4864 21.1644L16.1804 17H19.5C20.0523 17 20.5 16.5523 20.5 16C20.5 15.4477 20.0523 15 19.5 15H16.5138L17.5138 9H20.5C21.0523 9 21.5 8.55228 21.5 8C21.5 7.44772 21.0523 7 20.5 7H17.8471L18.4864 3.16443C18.5772 2.61966 18.2091 2.10444 17.6644 2.01364C17.1196 1.92285 16.6044 2.29086 16.5136 2.83564L15.8195 7H9.84711L10.4864 3.16443ZM14.4862 15L15.4862 9H9.51377L8.51377 15H14.4862Z" fill="#801ED7"/>
</svg>
